svg/misc/smoking.svg

<svg width="576" height="512" viewBox="0 0 576 512" version="1.1" xmlns="http://www.w3.org/2000/svg"><path fill="currentColor" d="M480,352c8.857,0.02 16,7.175 16,16l0,64c0,8.837 -7.163,16 -16,16l-16,0c-8.837,0 -16,-7.163 -16,-16l0,-64c0,-8.825 7.143,-15.98 16,-16l16,0Zm80,96l-16,0c-8.837,0 -16,-7.163 -16,-16l0,-64c0,-8.837 7.163,-16 16,-16l16,0c8.837,0 16,7.163 16,16l0,64c0,8.825 -7.143,15.98 -16,16Zm-160,-96c8.857,0.02 16,7.175 16,16l0,64c0,8.837 -7.163,16 -16,16l-384,0c-8.837,0 -16,-7.163 -16,-16l0,-64c0,-8.825 7.143,-15.98 16,-16l384,0Zm58.658,-99.5c1.089,3.542 1.634,7.708 1.634,12.5l0,30c0,2.917 0.981,5.312 2.942,7.188c1.962,1.874 4.468,2.812 7.519,2.812c3.051,0 5.557,-0.938 7.518,-2.812c1.962,-1.876 2.942,-4.271 2.942,-7.188l0,-30c0,-5.208 -0.381,-10 -1.144,-14.375c-0.762,-4.375 -1.634,-8.125 -2.615,-11.25c-0.981,-3.125 -2.615,-5.937 -4.903,-8.437c-2.289,-2.5 -4.25,-4.584 -5.884,-6.25c-1.635,-1.667 -4.25,-3.126 -7.846,-4.376c-3.596,-1.25 -6.374,-2.187 -8.336,-2.812c-1.961,-0.625 -5.339,-1.146 -10.134,-1.562c-4.794,-0.417 -8.226,-0.678 -10.297,-0.782c-2.07,-0.104 -5.884,-0.208 -11.441,-0.312c-5.557,-0.104 -9.426,-0.156 -11.605,-0.156c-8.063,-0.209 -15.037,-0.626 -20.921,-1.25c-5.884,-0.626 -12.695,-2.084 -20.431,-4.376c-7.737,-2.291 -14.493,-5.364 -20.268,-9.218c-5.775,-3.854 -11.714,-9.271 -17.816,-16.25c-6.102,-6.979 -11.278,-15.261 -15.527,-24.844c-4.25,-9.583 -8.118,-21.458 -11.605,-35.625c-3.487,-14.167 -5.993,-30.208 -7.519,-48.125c0,-2.917 -0.98,-5.312 -2.942,-7.187c-1.961,-1.875 -4.467,-2.813 -7.518,-2.813c-3.051,0 -5.558,0.938 -7.519,2.813c-1.961,1.875 -2.942,4.27 -2.942,7.187c1.961,21.25 5.121,40.26 9.48,57.031c4.359,16.771 9.099,30.573 14.22,41.407c5.121,10.833 11.768,20.156 19.941,27.968c8.172,7.813 15.364,13.646 21.575,17.5c6.211,3.854 14.438,6.927 24.68,9.219c10.243,2.292 18.089,3.646 23.537,4.063c5.448,0.416 13.294,0.833 23.536,1.25c6.32,0.208 11.006,0.468 14.057,0.781c3.051,0.312 7.028,0.781 11.932,1.406c4.903,0.625 8.499,1.615 10.787,2.969c2.289,1.354 4.74,3.125 7.355,5.312c2.616,2.188 4.468,5.052 5.558,8.594Zm-34.669,-157.5c22.032,0.006 39.289,5.162 51.813,15.469c12.531,10.312 18.796,25.573 18.796,45.781c11.551,0 20.813,0.99 27.786,2.969c6.974,1.979 13.621,6.198 19.941,12.656c12.204,12.5 18.088,30.208 17.652,53.125l0,70c0,2.917 -0.98,5.312 -2.942,7.188c-1.961,1.874 -4.467,2.812 -7.518,2.812c-3.051,0 -5.557,-0.938 -7.519,-2.812c-1.961,-1.876 -2.942,-4.271 -2.942,-7.188l0,-70c0,-15 -3.378,-27.083 -10.134,-36.25c-6.748,-9.157 -17.303,-13.74 -31.709,-13.75l-20.921,0l0,-10c-0.436,-33.318 -17.854,-49.985 -52.303,-50l-31.382,0c-3.073,-0.008 -5.567,-0.946 -7.519,-2.812c-1.961,-1.876 -2.942,-4.271 -2.942,-7.188c0,-2.917 0.981,-5.312 2.942,-7.187c1.952,-1.867 4.446,-2.805 7.519,-2.813l31.382,0Z"></path></svg>

<svg width="576" height="512" viewBox="0 0 576 512" fill="none" xmlns="http://www.w3.org/2000/svg">
<path d="M458.658 252.5C459.747 256.042 460.292 260.208 460.292 265V295C460.292 297.917 461.273 300.312 463.234 302.188C465.196 304.062 467.702 305 470.753 305C473.804 305 476.31 304.062 478.271 302.188C480.233 300.312 481.213 297.917 481.213 295V265C481.213 259.792 480.832 255 480.069 250.625C479.307 246.25 478.435 242.5 477.454 239.375C476.473 236.25 474.839 233.438 472.551 230.938C470.262 228.438 468.301 226.354 466.667 224.688C465.032 223.021 462.417 221.562 458.821 220.312C455.225 219.062 452.447 218.125 450.485 217.5C448.524 216.875 445.146 216.354 440.351 215.938C435.557 215.521 432.125 215.26 430.054 215.156C427.984 215.052 424.17 214.948 418.613 214.844C413.056 214.74 409.187 214.688 407.008 214.688C398.945 214.479 391.971 214.062 386.087 213.438C380.203 212.812 373.392 211.354 365.656 209.062C357.919 206.771 351.163 203.698 345.388 199.844C339.613 195.99 333.674 190.573 327.572 183.594C321.47 176.615 316.294 168.333 312.045 158.75C307.795 149.167 303.927 137.292 300.44 123.125C296.953 108.958 294.447 92.9167 292.921 75C292.921 72.0833 291.941 69.6875 289.979 67.8125C288.018 65.9375 285.512 65 282.461 65C279.41 65 276.903 65.9375 274.942 67.8125C272.981 69.6875 272 72.0833 272 75C273.961 96.25 277.121 115.26 281.48 132.031C285.839 148.802 290.579 162.604 295.7 173.438C300.821 184.271 307.468 193.594 315.641 201.406C323.813 209.219 331.005 215.052 337.216 218.906C343.427 222.76 351.654 225.833 361.896 228.125C372.139 230.417 379.985 231.771 385.433 232.188C390.881 232.604 398.727 233.021 408.969 233.438C415.289 233.646 419.975 233.906 423.026 234.219C426.077 234.531 430.054 235 434.958 235.625C439.861 236.25 443.457 237.24 445.745 238.594C448.034 239.948 450.485 241.719 453.1 243.906C455.716 246.094 457.568 248.958 458.658 252.5Z" fill="black"/>
<path d="M423.989 115C458.422 115 475.856 131.667 476.292 165V175H497.213C511.597 175 522.167 179.583 528.922 188.75C535.678 197.917 539.056 210 539.056 225V295C539.056 297.917 540.037 300.312 541.998 302.188C543.96 304.062 546.466 305 549.517 305C552.568 305 555.074 304.062 557.035 302.188C558.997 300.312 559.977 297.917 559.977 295V225C560.413 202.083 554.529 184.375 542.325 171.875C536.005 165.417 529.358 161.198 522.384 159.219C515.411 157.24 506.149 156.25 494.598 156.25C494.598 136.042 488.333 120.781 475.802 110.469C463.271 100.156 446 95 423.989 95H392.607C389.556 95 387.049 95.9375 385.088 97.8125C383.127 99.6875 382.146 102.083 382.146 105C382.146 107.917 383.127 110.312 385.088 112.188C387.049 114.062 389.556 115 392.607 115H423.989Z" fill="black"/>
<path d="M16 352C7.16344 352 0 359.163 0 368V432C0 440.837 7.16346 448 16 448H400C408.837 448 416 440.837 416 432V368C416 359.163 408.837 352 400 352H16Z" fill="black"/>
<path d="M464 352C455.163 352 448 359.163 448 368V432C448 440.837 455.163 448 464 448H480C488.837 448 496 440.837 496 432V368C496 359.163 488.837 352 480 352H464Z" fill="black"/>
<path d="M528 368C528 359.163 535.163 352 544 352H560C568.837 352 576 359.163 576 368V432C576 440.837 568.837 448 560 448H544C535.163 448 528 440.837 528 432V368Z" fill="black"/>
</svg>
